SVG_Azure_All/Azure LightHouse Projection.svg

<?xml version="1.0" encoding="UTF-8" standalone="no"?>
<!-- Generated by Microsoft Visio, SVG Export Azure LightHouse Projection.svg Page-1 -->

<svg
   xmlns:dc="http://purl.org/dc/elements/1.1/"
   xmlns:cc="http://creativecommons.org/ns#"
   xmlns:rdf="http://www.w3.org/1999/02/22-rdf-syntax-ns#"
   xmlns:svg="http://www.w3.org/2000/svg"
   xmlns="http://www.w3.org/2000/svg"
   xmlns:sodipodi="http://sodipodi.sourceforge.net/DTD/sodipodi-0.dtd"
   xmlns:inkscape="http://www.inkscape.org/namespaces/inkscape"
   width="0.78735828in"
   height="0.62999773in"
   viewBox="0 0 56.689795 45.36"
   xml:space="preserve"
   class="st3"
   version="1.1"
   id="svg24"
   sodipodi:docname="Azure LightHouse Projection.svg"
   style="font-size:12px;overflow:visible;color-interpolation-filters:sRGB;fill:none;fill-rule:evenodd;stroke-linecap:square;stroke-miterlimit:3"
   inkscape:version="0.92.5 (2060ec1f9f, 2020-04-08)"><metadata
   id="metadata30"><rdf:RDF><cc:Work
       rdf:about=""><dc:format>image/svg+xml</dc:format><dc:type
         rdf:resource="http://purl.org/dc/dcmitype/StillImage" /></cc:Work></rdf:RDF></metadata><defs
   id="defs28" /><sodipodi:namedview
   pagecolor="#ffffff"
   bordercolor="#666666"
   borderopacity="1"
   objecttolerance="10"
   gridtolerance="10"
   guidetolerance="10"
   inkscape:pageopacity="0"
   inkscape:pageshadow="2"
   inkscape:window-width="640"
   inkscape:window-height="480"
   id="namedview26"
   showgrid="false"
   inkscape:zoom="2.1095237"
   inkscape:cx="37.795143"
   inkscape:cy="10.588695"
   inkscape:window-x="0"
   inkscape:window-y="0"
   inkscape:window-maximized="0"
   inkscape:current-layer="svg24" />
	<style
   type="text/css"
   id="style2">
	<![CDATA[
		.st1 {fill:#59b4d9;stroke:none;stroke-linecap:butt;stroke-width:0.097958}
		.st2 {fill:#0077d3;stroke:none;stroke-linecap:butt;stroke-width:0.097958}
		.st3 {fill:none;fill-rule:evenodd;font-size:12px;overflow:visible;stroke-linecap:square;stroke-miterlimit:3}
	]]>
	</style>

	<g
   id="g22"
   transform="translate(-5.6694146,-4.5343)">
		<title
   id="title4">Page-1</title>
		<g
   id="group7938-1"
   transform="translate(5.66929,-34.0157)">
			<title
   id="title6">Azure LightHouse Projection</title>
			<g
   id="group7939-2">
				<title
   id="title8">g1535</title>
				<g
   id="shape7940-3">
					<title
   id="title10">path1557</title>
					<path
   d="m 0,82.62 v -1.28 h 1.4 c 1.09,0 18.85,0 39.15,0 h 1.1 v 1.28 1.29 H 20.83 0 Z M 41.51,58.39 41.54,54.15 41.25,53.54 C 41.09,53.2 40.78,52.79 40.56,52.63 39.63,51.94 40.13,51.96 27.89,51.96 H 16.66 l 0.53,-0.53 c 0.75,-0.76 1.81,-1.41 2.77,-1.7 0.88,-0.26 0.85,-0.22 0.98,-1.32 0.22,-1.89 2.02,-3.67 4.09,-4.04 1.32,-0.24 2.92,0.2 3.94,1.08 0.66,0.56 0.74,0.5 1.29,-0.95 0.53,-1.37 1.08,-2.19 2.25,-3.32 1.84,-1.78 3.89,-2.63 6.4,-2.63 1.89,0 2.88,0.23 4.59,1.09 0.74,0.37 1.22,0.74 2.1,1.6 1,0.97 1.22,1.26 1.76,2.33 0.35,0.69 0.7,1.59 0.8,2.04 0.25,1.2 0.23,3.09 -0.06,4.2 -0.13,0.5 -0.24,1.01 -0.24,1.12 0,0.27 0.37,0.29 1.06,0.05 1.93,-0.67 4.4,-0.07 5.97,1.44 1.26,1.21 1.8,2.5 1.8,4.26 -0.01,2.16 -1.09,3.98 -3.04,5.09 -1.27,0.72 -1.32,0.73 -6.98,0.8 l -5.2,0.06 z m -20.98,4 c -2.9,-0.61 -5.14,-3.19 -5.28,-6.08 l -0.04,-0.85 h 11.37 11.37 v 3.56 3.55 l -8.32,-0.01 c -6.64,0 -8.48,-0.04 -9.1,-0.17 z"
   class="st1"
   id="path12"
   inkscape:connector-curvature="0"
   style="fill:#59b4d9;stroke:none;stroke-width:0.097958;stroke-linecap:butt" />
				</g>
				<g
   id="shape7941-5"
   transform="translate(1.46705,-3.0256)">
					<title
   id="title15">path1537</title>
					<path
   d="M 1.31,83.77 C 0.89,83.62 0.46,83.22 0.24,82.8 0.01,82.36 0,82.07 0,69.7 0,61.07 0.04,56.95 0.13,56.73 0.32,56.24 0.95,55.66 1.43,55.53 1.7,55.45 8.41,55.41 19.86,55.41 h 18.02 l 0.52,0.25 c 0.28,0.13 0.66,0.43 0.84,0.66 l 0.32,0.41 0.04,12.54 c 0.02,6.9 0,12.72 -0.04,12.93 -0.1,0.53 -0.92,1.39 -1.47,1.54 -0.51,0.13 -34.63,0.17 -34.63,0.03 0,-0.05 0.2,-0.25 0.45,-0.44 0.24,-0.19 0.88,-0.73 1.42,-1.19 l 0.98,-0.85 h 15.21 c 13.6,0 15.23,-0.02 15.36,-0.18 0.13,-0.15 0.14,-2.36 0.08,-11.51 C 36.92,63.38 36.84,58.24 36.79,58.2 36.63,58.05 2.84,57.97 2.66,58.11 c -0.12,0.1 -0.15,1.33 -0.15,6.17 0,5.33 0.02,6.06 0.18,6.22 0.17,0.16 0.82,0.18 5.34,0.18 3.04,0 5.23,-0.05 5.34,-0.11 0.15,-0.09 0.17,-0.43 0.14,-2.1 -0.03,-1.38 0,-1.98 0.09,-1.98 0.15,0 5.62,4.88 5.62,5.02 0,0.05 -1.25,1.27 -2.78,2.72 l -2.77,2.63 -0.06,-2.13 C 13.57,73.56 13.5,72.54 13.45,72.46 13.31,72.25 2.86,72.25 2.65,72.45 c -0.22,0.22 -0.2,8.53 0.01,8.71 0.09,0.07 0.8,0.14 1.66,0.16 L 5.83,81.35 4.34,82.6 2.85,83.85 H 2.17 C 1.8,83.84 1.41,83.81 1.31,83.77 Z"
   class="st2"
   id="path17"
   inkscape:connector-curvature="0"
   style="fill:#0077d3;stroke:none;stroke-width:0.097958;stroke-linecap:butt" />
				</g>
			</g>
		</g>
	</g>
</svg>

<?xml version="1.0" encoding="UTF-8" standalone="no"?>
<!DOCTYPE svg PUBLIC "-//W3C//DTD SVG 1.1//EN" "http://www.w3.org/Graphics/SVG/1.1/DTD/svg11.dtd">
<!-- Generated by Microsoft Visio, SVG Export Azure LightHouse Projection.svg Page-1 -->
<svg xmlns="http://www.w3.org/2000/svg" xmlns:xlink="http://www.w3.org/1999/xlink" xmlns:ev="http://www.w3.org/2001/xml-events"
		width="0.944882in" height="1.16535in" viewBox="0 0 68.0315 83.9055" xml:space="preserve" color-interpolation-filters="sRGB"
		class="st3">
	<style type="text/css">
	<![CDATA[
		.st1 {fill:#59b4d9;stroke:none;stroke-linecap:butt;stroke-width:0.097958}
		.st2 {fill:#0077d3;stroke:none;stroke-linecap:butt;stroke-width:0.097958}
		.st3 {fill:none;fill-rule:evenodd;font-size:12px;overflow:visible;stroke-linecap:square;stroke-miterlimit:3}
	]]>
	</style>

	<g>
		<title>Page-1</title>
		<g id="group7743-1" transform="translate(5.66929,-34.0157)">
			<title>Azure LightHouse Projection</title>
			<g id="group7744-2">
				<title>g1535</title>
				<g id="shape7745-3">
					<title>path1557</title>
					<path d="M0 82.62 L0 81.34 L1.4 81.34 C2.49 81.34 20.25 81.34 40.55 81.34 L41.65 81.34 L41.65 82.62 L41.65 83.91
								 L20.83 83.91 L0 83.91 L0 82.62 ZM41.51 58.39 L41.54 54.15 L41.25 53.54 C41.09 53.2 40.78 52.79 40.56
								 52.63 C39.63 51.94 40.13 51.96 27.89 51.96 L16.66 51.96 L17.19 51.43 C17.94 50.67 19 50.02 19.96
								 49.73 C20.84 49.47 20.81 49.51 20.94 48.41 C21.16 46.52 22.96 44.74 25.03 44.37 C26.35 44.13 27.95
								 44.57 28.97 45.45 C29.63 46.01 29.71 45.95 30.26 44.5 C30.79 43.13 31.34 42.31 32.51 41.18 C34.35
								 39.4 36.4 38.55 38.91 38.55 C40.8 38.55 41.79 38.78 43.5 39.64 C44.24 40.01 44.72 40.38 45.6 41.24
								 C46.6 42.21 46.82 42.5 47.36 43.57 C47.71 44.26 48.06 45.16 48.16 45.61 C48.41 46.81 48.39 48.7
								 48.1 49.81 C47.97 50.31 47.86 50.82 47.86 50.93 C47.86 51.2 48.23 51.22 48.92 50.98 C50.85 50.31
								 53.32 50.91 54.89 52.42 C56.15 53.63 56.69 54.92 56.69 56.68 C56.68 58.84 55.6 60.66 53.65 61.77
								 C52.38 62.49 52.33 62.5 46.67 62.57 L41.47 62.63 L41.51 58.39 ZM20.53 62.39 C17.63 61.78 15.39 59.2
								 15.25 56.31 L15.21 55.46 L26.58 55.46 L37.95 55.46 L37.95 59.02 L37.95 62.57 L29.63 62.56 C22.99
								 62.56 21.15 62.52 20.53 62.39 L20.53 62.39 Z" class="st1"/>
				</g>
				<g id="shape7746-5" transform="translate(1.46705,-3.0256)">
					<title>path1537</title>
					<path d="M1.31 83.77 C0.89 83.62 0.46 83.22 0.24 82.8 C0.01 82.36 0 82.07 0 69.7 C0 61.07 0.04 56.95 0.13 56.73
								 C0.32 56.24 0.95 55.66 1.43 55.53 C1.7 55.45 8.41 55.41 19.86 55.41 L37.88 55.41 L38.4 55.66 C38.68
								 55.79 39.06 56.09 39.24 56.32 L39.56 56.73 L39.6 69.27 C39.62 76.17 39.6 81.99 39.56 82.2 C39.46
								 82.73 38.64 83.59 38.09 83.74 C37.58 83.87 3.46 83.91 3.46 83.77 C3.46 83.72 3.66 83.52 3.91 83.33
								 C4.15 83.14 4.79 82.6 5.33 82.14 L6.31 81.29 L21.52 81.29 C35.12 81.29 36.75 81.27 36.88 81.11 C37.01
								 80.96 37.02 78.75 36.96 69.6 C36.92 63.38 36.84 58.24 36.79 58.2 C36.63 58.05 2.84 57.97 2.66 58.11
								 C2.54 58.21 2.51 59.44 2.51 64.28 C2.51 69.61 2.53 70.34 2.69 70.5 C2.86 70.66 3.51 70.68 8.03 70.68
								 C11.07 70.68 13.26 70.63 13.37 70.57 C13.52 70.48 13.54 70.14 13.51 68.47 C13.48 67.09 13.51 66.49
								 13.6 66.49 C13.75 66.49 19.22 71.37 19.22 71.51 C19.22 71.56 17.97 72.78 16.44 74.23 L13.67 76.86
								 L13.61 74.73 C13.57 73.56 13.5 72.54 13.45 72.46 C13.31 72.25 2.86 72.25 2.65 72.45 C2.43 72.67
								 2.45 80.98 2.66 81.16 C2.75 81.23 3.46 81.3 4.32 81.32 L5.83 81.35 L4.34 82.6 L2.85 83.85 L2.17
								 83.85 C1.8 83.84 1.41 83.81 1.31 83.77 L1.31 83.77 Z" class="st2"/>
				</g>
			</g>
		</g>
	</g>
</svg>
